app/static/images/icons/social_wellbeing.svg

<?xml version="1.0" encoding="UTF-8"?>
<svg width="48" height="48" version="1.1" viewBox="0 0 48 48" xmlns="http://www.w3.org/2000/svg">
 <path d="m47.746 32.868c-0.7264-1.3768-2.3943-1.7191-3.862-1.667 0.2223-1.0642-0.5708-2.2773-1.5567-2.6717-1.2157-0.4838-2.6612 0-3.8176 0.439-0.1409 0.0521-0.2743 0.1042-0.4151 0.1638-0.4448-0.5954-1.6827-0.707-2.2758-0.6921-0.6449 0.0223-1.2601 0.2976-1.8531 0.5432-0.6524 0.2679-1.2973 0.5656-1.9422 0.841-1.3121 0.5582-2.6167 1.161-3.9807 1.5926 0.8748-0.8037 1.6234-2.2029 1.2528-3.4159-0.4077-1.3471-1.9421-1.6596-3.1653-1.6894-1.4306-0.0372-2.8465 0.0223-4.2771-0.0744-2.9726-0.201-6.1304-0.9303-9.051 0.0149-1.5122 0.4837-2.9355 1.4214-3.9955 2.6122-0.15567 0.1786-0.31875 0.3721-0.47442 0.573 0.06672-0.3944-0.09636-0.8261-0.59302-0.96-1.2083-0.3349-2.4759-0.4242-3.7286-0.4912-1.0526-0.0521-2.335-0.1117-3.1356 0.707-0.67456 0.6772-0.48924 1.5703-0.48924 2.4261 0 0.4242-0.022238 0.8484-0.037063 1.2726-0.12602 2.9248-0.31875 5.857-0.3484 8.7892 0 0.6698 0.014826 1.3322 0.029651 1.9945 0.014826 0.4317-0.014826 0.908 0.13343 1.3247 0.14084 0.4168 0.467 0.6624 0.90436 0.6922 1.5493 0.0967 3.1208 0.2381 4.6775 0.1934 0.74128-0.0223 1.4826-0.186 1.9496-0.7144h0.05931c0.9859 0 1.9866-0.134 2.9725-0.1563 1.06-0.0298 2.12-0.0372 3.1727-0.0223 2.0681 0.0298 4.1363 0.1712 6.197 0.3349 2.1349 0.1711 4.2846 0.4316 6.4269 0.454 1.9792 0.0223 3.8176-0.3201 5.6115-1.1461 3.0466-1.3992 5.5299-3.7955 8.6136-5.1351 1.6976-0.7442 3.5878-1.094 5.1667-2.1062 1.275-0.8186 2.6687-2.4335 1.831-4.0262zm-40.993 0.3498c-0.09636 1.4736-0.20756 2.9471-0.25945 4.4281-0.05189 1.3768-0.10377 2.761-0.16308 4.1378-0.01482 0.387-0.03706 0.7666-0.05189 1.1536 0 0.0446 0 0.0893-0.00741 0.1339v0.1489c0 0.0297 0.01483 0.1488 0.01483 0.186v0.0075s0-0.0075 0.00741-0.0149h0.01482c0 0.0149-0.01482 0.0223-0.03706 0.0298-0.05189 0.0669-0.03706 0.0372-0.00741 0-0.0593 0.0148-0.14826 0.0148-0.14084 0.0074h-0.04448c-0.88954 0.0595-1.7865 0-2.676-0.0372-0.5189-0.0223-1.0526-0.0819-1.5789-0.1042v-0.0149c0-0.0149 0-0.0372-0.00741-0.067-0.00741-0.0818-0.01482-0.1339-0.02224-0.1637v-0.1414c0-0.1116-0.00741-0.2233-0.01482-0.3349-0.00742-0.3051-0.01483-0.6102-0.01483-0.9079 0-1.3917 0.04448-2.7834 0.10378-4.1676 0.05189-1.3843 0.12602-2.7685 0.18532-4.1528 0.03706-0.8186 0.1186-1.6596 0.07413-2.4782-0.01483-0.32-0.19273-0.8261 0.09636-1.0419 0.30393-0.2233 0.93401-0.1637 1.2824-0.1488 1.186 0.0372 2.4017 0.0967 3.5581 0.3869-0.21497 1.0271-0.22239 2.1062-0.29651 3.1406l-0.01483 0.0149zm33.839-3.3638c0.5189-0.1191 1.186-0.2084 1.6679 0.0744 0.5188 0.3051 0.6078 0.8186 0.6819 1.347-0.7709 0.1042-1.527 0.3051-2.2683 0.5507-0.4448 0.1489-0.8821 0.32-1.3046 0.521-0.6672-0.0521-1.3269 0.3423-1.9125 0.6251-0.6301 0.3052-1.2676 0.6103-1.9125 0.8856-1.0971 0.4763-2.2609 0.8633-3.4321 1.1089-1.4678 0.3052-2.9874 0.3275-4.4996 0.1861 1.5493-0.3647 3.0689-0.841 4.544-1.4438 1.5715-0.6475 3.0615-1.4363 4.5663-2.2252 1.2305-0.64 2.5055-1.3247 3.8695-1.6373v0.0075zm-11.297 2.7015c1.6234-0.6028 3.2097-1.3099 4.7738-2.0541 0.3781-0.1786 0.7636-0.3274 1.1342-0.5135 0.3262-0.1637 0.6227-0.2902 0.9933-0.3349 0.252-0.0297 0.5115-0.0446 0.7635-0.0149-1.1416 0.5582-2.2461 1.2057-3.3802 1.7638-1.6531 0.8187-3.3802 1.481-5.1593 1.9796-0.9859 0.2754-1.9866 0.4987-2.9948 0.6624-0.7561 0.1191-1.5641 0.0893-2.335 0.2084-0.4967-0.1414-0.9859-0.2977-1.4751-0.454 0.8895-0.0223 1.7864-0.067 2.6686-0.2009 1.7049-0.268 3.3802-0.4317 5.011-1.0345v-0.0074zm16.501 2.2028c-0.4892 0.521-1.1119 0.8782-1.7642 1.1685-1.5344 0.6846-3.1727 1.0567-4.6923 1.7786-2.8168 1.3396-5.1667 3.483-7.991 4.8002-1.5418 0.7145-3.1356 0.975-4.8257 0.9526-1.9718-0.0223-3.951-0.2604-5.908-0.4167-2.1793-0.1712-4.3513-0.3349-6.538-0.3721-1.0601-0.0149-2.1201-0.0149-3.1801 0.0148-0.5411 0.0149-1.0823 0.0373-1.6234 0.0596-0.36323 0.0149-0.72646 0.0595-1.0897 0.0893 0-0.1116 0-0.2158 0.00741-0.32 0.13343-2.895 0.24462-5.79 0.2298-8.6925 0-0.6549-0.00742-1.3172-0.01483-1.9721v-0.0893c0.33358-0.7294 0.90436-1.3471 1.49-1.9052 0.87474-0.8261 1.8976-1.5257 3.054-1.8903 2.4981-0.7815 5.1816-0.268 7.7241 0 1.4085 0.1488 2.8391 0.1935 4.255 0.186 0.504 0 1.0081-0.0521 1.5122-0.0595 0.341 0 0.8895-0.0298 1.1564 0.2232 0.2594 0.2382 0.0963 0.6847-0.0223 0.9601-0.1853 0.4316-0.4744 0.7963-0.8376 1.0865-0.8747 0.7145-1.994 0.9154-3.0837 1.0196-1.5715 0.1563-3.2098 0.1861-4.7294 0.6624-0.7413 0.2381-1.4677 0.5283-2.1793 0.8484-0.7117 0.32-1.5197 0.5953-2.0534 1.1833-0.3632 0.3944-0.1408 1.2279 0.4819 1.1684 0.8228-0.0819 1.5122-0.521 2.2534-0.8559 0.0742-0.0297 0.1483-0.0669 0.2224-0.0967 0.2076 0.1935 0.4448 0.2605 0.6672 0.2307 1.4158 0.4912 2.8168 1.0047 4.2623 1.3842 1.5938 0.4168 3.2023 0.7368 4.8406 0.9005 1.527 0.1489 3.0466 0.1861 4.5662-0.0446 1.3195-0.201 2.55-0.6252 3.7731-1.161 0.7117-0.3126 1.4085-0.6549 2.0979-1.0121 0.4151-0.2158 0.8821-0.4168 1.2898-0.6921 1.1638-0.4689 2.3795-0.8187 3.6248-0.975 1.0156-0.1265 2.6612-0.32 3.3803 0.6252 0.2965 0.387-0.0371 0.8558-0.3559 1.1982v0.0148zm-39.54 8.6627 0.00742-0.0149s-0.00741 0-0.01483 0.0149h0.00741zm-0.00741 0.0075c-0.10378 0-0.14084 0.0074-0.14825 0.0148 0.05189 0 0.09636-0.0074 0.14825-0.0148h0.00741-0.00741zm0.00741 0v0.0074-0.0074zm-0.01482-0.0373s0 0.0224 0.00741 0.0298c0 0-0.00741-0.0149-0.01482-0.0223l0.00741-0.0075zm0.02965 0.0224v0.0074-0.0074z" fill="#020300"/>
 <path d="m43.068 7.5643c-0.1853-1.2056-0.7413-2.3071-1.4974-3.2522-0.7561-0.94516-1.7642-1.667-2.9058-2.0615-1.275-0.44653-2.6612-0.26048-3.8768 0.27536-1.3269 0.58049-2.4018 1.5554-3.4099 2.575-0.1409 0.14141-0.2817 0.29769-0.4151 0.44653-0.0742-0.11907-0.1483-0.2307-0.215-0.32001-0.3855-0.55072-0.9488-1.0047-1.4826-1.3991-0.8895-0.6698-1.9644-1.1386-3.0466-1.3991-0.9785-0.23815-2.0163-0.30513-2.9948-0.04465-1.0822 0.2828-1.9347 0.96004-2.5722 1.868-1.3047 1.868-1.5938 4.3834-1.0823 6.5715 0.556 2.374 2.2313 4.4504 3.8769 6.1844 1.0007 1.0493 2.0533 2.0689 3.143 3.0215 0.5708 0.4912 1.1638 0.9526 1.7346 1.4438 0.5486 0.4688 1.1193 0.9303 1.7717 1.2354 0.1927 0.0967 0.4077 0.1265 0.6078 0.0967 0.1557 0.0596 0.341 0.067 0.5263 0 1.364-0.5135 2.5871-1.5628 3.699-2.4857 1.0823-0.8856 2.0978-1.8605 3.0763-2.8652 1.7642-1.8308 3.5359-3.7508 4.5144-6.1398 0.4818-1.1758 0.7413-2.4782 0.5485-3.7508zm-2.1645 2.3294c-0.6301 2.2029-2.2757 3.9964-3.8176 5.6114-0.9859 1.0419-2.0014 2.0391-3.0689 2.9917-0.5337 0.4763-1.0822 0.9452-1.6604 1.3768-0.5338 0.4019-1.112 0.7591-1.6457 1.1684-0.8673-0.4837-1.6234-1.213-2.3721-1.8456-0.8895-0.7591-1.7271-1.5703-2.5796-2.3592-1.5863-1.4661-3.1134-3.0662-4.0845-5.016-0.845-1.6819-0.9265-3.7062-0.2891-5.47 0.2743-0.75166 0.7413-1.5629 1.4233-2.0168 0.6672-0.44653 1.4603-0.54327 2.2461-0.4763 0.9192 0.08187 1.8309 0.42421 2.6389 0.85585 0.5263 0.2828 1.0378 0.58049 1.4974 0.96004 0.2224 0.1935 0.4374 0.39444 0.6597 0.59537 0.0668 0.05954 0.1261 0.12652 0.1854 0.18606-0.215 0.18605-0.4374 0.31257-0.7784 0.18605-0.2446-0.09675-0.4003 0.20838-0.3113 0.40188 0.4373 0.9005 1.5863 0.707 2.2461 0.19349 0.7709-0.58793 1.4232-1.3173 2.1867-1.9201 0.897-0.69957 1.8977-1.3694 3.0319-1.5703 1.0155-0.17861 2.0088 0.16373 2.8094 0.78143 1.6753 1.28 2.2461 3.4011 1.6827 5.3658z" fill="#020300"/>
</svg>

<svg width="48" height="48" viewBox="0 0 48 48" fill="none" xmlns="http://www.w3.org/2000/svg">
<path d="M47.7457 32.8679C47.0193 31.4911 45.3514 31.1488 43.8837 31.2009C44.106 30.1367 43.3129 28.9236 42.327 28.5292C41.1113 28.0454 39.6658 28.5292 38.5094 28.9682C38.3685 29.0203 38.2351 29.0724 38.0943 29.132C37.6495 28.5366 36.4116 28.425 35.8185 28.4399C35.1736 28.4622 34.5584 28.7375 33.9654 28.9831C33.313 29.251 32.6681 29.5487 32.0232 29.8241C30.7111 30.3823 29.4065 30.9851 28.0425 31.4167C28.9173 30.613 29.6659 29.2138 29.2953 28.0008C28.8876 26.6537 27.3532 26.3412 26.13 26.3114C24.6994 26.2742 23.2835 26.3337 21.8529 26.237C18.8803 26.036 15.7225 25.3067 12.8019 26.2519C11.2897 26.7356 9.86641 27.6733 8.80638 28.8641C8.65071 29.0427 8.48763 29.2362 8.33196 29.4371C8.39868 29.0427 8.2356 28.611 7.73894 28.4771C6.53066 28.1422 5.26307 28.0529 4.01031 27.9859C2.9577 27.9338 1.67529 27.8742 0.874708 28.6929C0.200145 29.3701 0.385464 30.2632 0.385464 31.119C0.385464 31.5432 0.363226 31.9674 0.348401 32.3916C0.222383 35.3164 0.0296511 38.2486 0 41.1808C0 41.8506 0.0148256 42.513 0.0296511 43.1753C0.0444767 43.607 0.0148256 44.0833 0.163081 44.5C0.303924 44.9168 0.630086 45.1624 1.06744 45.1922C2.61671 45.2889 4.18822 45.4303 5.7449 45.3856C6.48618 45.3633 7.22746 45.1996 7.69446 44.6712C7.7167 44.6712 7.73153 44.6712 7.75377 44.6712C8.73967 44.6712 9.74039 44.5372 10.7263 44.5149C11.7863 44.4851 12.8463 44.4777 13.899 44.4926C15.9671 44.5224 18.0353 44.6638 20.096 44.8275C22.2309 44.9986 24.3806 45.2591 26.5229 45.2815C28.5021 45.3038 30.3405 44.9614 32.1344 44.1354C35.181 42.7362 37.6643 40.3399 40.748 39.0003C42.4456 38.2561 44.3358 37.9063 45.9147 36.8941C47.1897 36.0755 48.5834 34.4606 47.7457 32.8679ZM6.75304 33.2177C6.65668 34.6913 6.54548 36.1648 6.49359 37.6458C6.4417 39.0226 6.38982 40.4068 6.33051 41.7836C6.31569 42.1706 6.29345 42.5502 6.27862 42.9372C6.27862 42.9818 6.27862 43.0265 6.27121 43.0711C6.27121 43.1232 6.27121 43.1753 6.27121 43.22C6.27121 43.2497 6.28604 43.3688 6.28604 43.406C6.28604 43.406 6.28604 43.406 6.28604 43.4135C6.28604 43.4135 6.28604 43.406 6.29345 43.3986H6.30827C6.30827 43.4135 6.29345 43.4209 6.27121 43.4284C6.21932 43.4953 6.23415 43.4656 6.2638 43.4284C6.2045 43.4432 6.11554 43.4432 6.12296 43.4358C6.10813 43.4358 6.0933 43.4358 6.07848 43.4358C5.18894 43.4953 4.292 43.4358 3.40247 43.3986C2.88357 43.3763 2.34985 43.3167 1.82354 43.2944C1.82354 43.2944 1.82354 43.287 1.82354 43.2795C1.82354 43.2646 1.82354 43.2423 1.81613 43.2125C1.80872 43.1307 1.80131 43.0786 1.79389 43.0488C1.79389 43.0488 1.79389 43.0265 1.79389 42.9074C1.79389 42.7958 1.78648 42.6841 1.77907 42.5725C1.77165 42.2674 1.76424 41.9623 1.76424 41.6646C1.76424 40.2729 1.80872 38.8812 1.86802 37.497C1.91991 36.1127 1.99404 34.7285 2.05334 33.3442C2.0904 32.5256 2.17194 31.6846 2.12747 30.866C2.11264 30.546 1.93474 30.0399 2.22383 29.8241C2.52776 29.6008 3.15784 29.6604 3.50624 29.6753C4.69229 29.7125 5.90798 29.772 7.06438 30.0622C6.84941 31.0893 6.84199 32.1684 6.76787 33.2028L6.75304 33.2177ZM40.5924 29.8539C41.1113 29.7348 41.7784 29.6455 42.2603 29.9283C42.7791 30.2334 42.8681 30.7469 42.9422 31.2753C42.1713 31.3795 41.4152 31.5804 40.6739 31.826C40.2291 31.9749 39.7918 32.146 39.3693 32.347C38.7021 32.2949 38.0424 32.6893 37.4568 32.9721C36.8267 33.2773 36.1892 33.5824 35.5443 33.8577C34.4472 34.334 33.2834 34.721 32.1122 34.9666C30.6444 35.2718 29.1248 35.2941 27.6126 35.1527C29.1619 34.788 30.6815 34.3117 32.1566 33.7089C33.7281 33.0614 35.2181 32.2726 36.7229 31.4837C37.9534 30.8437 39.2284 30.159 40.5924 29.8464V29.8539ZM29.2953 32.5554C30.9187 31.9526 32.505 31.2455 34.0691 30.5013C34.4472 30.3227 34.8327 30.1739 35.2033 29.9878C35.5295 29.8241 35.826 29.6976 36.1966 29.6529C36.4486 29.6232 36.7081 29.6083 36.9601 29.638C35.8185 30.1962 34.714 30.8437 33.5799 31.4018C31.9268 32.2205 30.1997 32.8828 28.4206 33.3814C27.4347 33.6568 26.434 33.8801 25.4258 34.0438C24.6697 34.1629 23.8617 34.1331 23.0908 34.2522C22.5941 34.1108 22.1049 33.9545 21.6157 33.7982C22.5052 33.7759 23.4021 33.7312 24.2843 33.5973C25.9892 33.3293 27.6645 33.1656 29.2953 32.5628V32.5554ZM45.7961 34.7582C45.3069 35.2792 44.6842 35.6364 44.0319 35.9267C42.4975 36.6113 40.8592 36.9834 39.3396 37.7053C36.5228 39.0449 34.1729 41.1883 31.3486 42.5055C29.8068 43.22 28.213 43.4805 26.5229 43.4581C24.5511 43.4358 22.5719 43.1977 20.6149 43.0414C18.4356 42.8702 16.2636 42.7065 14.0769 42.6693C13.0168 42.6544 11.9568 42.6544 10.8968 42.6841C10.3557 42.699 9.81452 42.7214 9.27339 42.7437C8.91016 42.7586 8.54693 42.8032 8.18371 42.833C8.18371 42.7214 8.18371 42.6172 8.19112 42.513C8.32455 39.618 8.43574 36.723 8.42092 33.8205C8.42092 33.1656 8.4135 32.5033 8.40609 31.8484C8.40609 31.8186 8.40609 31.7888 8.40609 31.7591C8.73967 31.0297 9.31045 30.412 9.89606 29.8539C10.7708 29.0278 11.7937 28.3282 12.9501 27.9636C15.4482 27.1821 18.1317 27.6956 20.6742 27.9636C22.0827 28.1124 23.5133 28.1571 24.9292 28.1496C25.4332 28.1496 25.9373 28.0975 26.4414 28.0901C26.7824 28.0901 27.3309 28.0603 27.5978 28.3133C27.8572 28.5515 27.6941 28.998 27.5755 29.2734C27.3902 29.705 27.1011 30.0697 26.7379 30.3599C25.8632 31.0744 24.7439 31.2753 23.6542 31.3795C22.0827 31.5358 20.4444 31.5656 18.9248 32.0419C18.1835 32.28 17.4571 32.5702 16.7455 32.8903C16.0338 33.2103 15.2258 33.4856 14.6921 34.0736C14.3289 34.468 14.5513 35.3015 15.174 35.242C15.9968 35.1601 16.6862 34.721 17.4274 34.3861C17.5016 34.3564 17.5757 34.3192 17.6498 34.2894C17.8574 34.4829 18.0946 34.5499 18.317 34.5201C19.7328 35.0113 21.1338 35.5248 22.5793 35.9043C24.1731 36.3211 25.7816 36.6411 27.4199 36.8048C28.9469 36.9537 30.4665 36.9909 31.9861 36.7602C33.3056 36.5592 34.5361 36.135 35.7592 35.5992C36.4709 35.2866 37.1677 34.9443 37.8571 34.5871C38.2722 34.3713 38.7392 34.1703 39.1469 33.895C40.3107 33.4261 41.5264 33.0763 42.7717 32.92C43.7873 32.7935 45.4329 32.6 46.152 33.5452C46.4485 33.9322 46.1149 34.401 45.7961 34.7434V34.7582ZM6.25638 43.4209C6.25638 43.4209 6.25638 43.4209 6.2638 43.406C6.2638 43.406 6.25639 43.406 6.24897 43.4209H6.25638ZM6.24897 43.4284C6.14519 43.4284 6.10813 43.4358 6.10072 43.4432C6.15261 43.4432 6.19708 43.4358 6.24897 43.4284C6.24897 43.4284 6.24897 43.4284 6.25638 43.4284H6.24897ZM6.25638 43.4284C6.25638 43.4284 6.25638 43.4284 6.25638 43.4358V43.4284ZM6.24156 43.3911C6.24156 43.3911 6.24156 43.4135 6.24897 43.4209C6.24897 43.4209 6.24156 43.406 6.23415 43.3986L6.24156 43.3911ZM6.27121 43.4135C6.27121 43.4135 6.27121 43.4135 6.27121 43.4209C6.27121 43.4209 6.27121 43.4209 6.27121 43.4135Z" fill="#020300"/>
<path d="M43.0679 7.56429C42.8826 6.35866 42.3266 5.25722 41.5705 4.31207C40.8144 3.36691 39.8063 2.64502 38.6647 2.25059C37.3897 1.80406 36.0035 1.99011 34.7879 2.52595C33.461 3.10644 32.3861 4.08136 31.378 5.10093C31.2371 5.24234 31.0963 5.39862 30.9629 5.54746C30.8887 5.42839 30.8146 5.31676 30.7479 5.22745C30.3624 4.67673 29.7991 4.22276 29.2653 3.82833C28.3758 3.15853 27.3009 2.68968 26.2187 2.4292C25.2402 2.19105 24.2024 2.12407 23.2239 2.38455C22.1417 2.66735 21.2892 3.34459 20.6517 4.25253C19.347 6.12051 19.0579 8.63596 19.5694 10.824C20.1254 13.198 21.8007 15.2744 23.4463 17.0084C24.447 18.0577 25.4996 19.0773 26.5893 20.0299C27.1601 20.5211 27.7531 20.9825 28.3239 21.4737C28.8725 21.9425 29.4432 22.404 30.0956 22.7091C30.2883 22.8058 30.5033 22.8356 30.7034 22.8058C30.8591 22.8654 31.0444 22.8728 31.2297 22.8058C32.5937 22.2923 33.8168 21.243 34.9287 20.3201C36.011 19.4345 37.0265 18.4596 38.005 17.4549C39.7692 15.6241 41.5409 13.7041 42.5194 11.3151C43.0012 10.1393 43.2607 8.8369 43.0679 7.56429ZM40.9034 9.89368C40.2733 12.0966 38.6277 13.8901 37.0858 15.5051C36.0999 16.547 35.0844 17.5442 34.0169 18.4968C33.4832 18.9731 32.9347 19.442 32.3565 19.8736C31.8227 20.2755 31.2445 20.6327 30.7108 21.042C29.8435 20.5583 29.0874 19.829 28.3387 19.1964C27.4492 18.4373 26.6116 17.6261 25.7591 16.8372C24.1728 15.3711 22.6457 13.771 21.6746 11.8212C20.8296 10.1393 20.7481 8.11501 21.3855 6.35122C21.6598 5.59956 22.1268 4.78836 22.8088 4.33439C23.476 3.88786 24.2691 3.79112 25.0549 3.85809C25.9741 3.93996 26.8858 4.2823 27.6938 4.71394C28.2201 4.99674 28.7316 5.29443 29.1912 5.67398C29.4136 5.86748 29.6286 6.06842 29.8509 6.26935C29.9177 6.32889 29.977 6.39587 30.0363 6.45541C29.8213 6.64146 29.5989 6.76798 29.2579 6.64146C29.0133 6.54471 28.8576 6.84984 28.9466 7.04334C29.3839 7.94384 30.5329 7.75034 31.1927 7.23683C31.9636 6.6489 32.6159 5.91957 33.3794 5.31676C34.2764 4.61719 35.2771 3.9474 36.4113 3.74646C37.4268 3.56785 38.4201 3.91019 39.2207 4.52789C40.896 5.80794 41.4668 7.92895 40.9034 9.89368Z" fill="#020300"/>
</svg>
